client/resources/iconsets/breeze/src/svg/16x16/icon_task_assigned.svg

<svg xmlns="http://www.w3.org/2000/svg" width="16" height="16" viewBox="0 0 16 16">
 <path style="fill:#fcc907"
       d="M 8 3 A 2 2 0 0 0 6 5 A 2 2 0 0 0 8 7 A 2 2 0 0 0 10 5 A 2 2 0 0 0 8 3 z M 8 7 A 4 4 0 0 0 4 11 A 4 1 0 0 0 8 12 A 4 1 0 0 0 12 11 A 4 4 0 0 0 8 7 z "
       />
 <path style="fill:#6d6d70"
       d="M 8 0.00390625 C 6.8954 0.00390625 6 0.89933635 6 2.0039062 L 2 2.0039062 C 1 2.0039062 1 3.0039062 1 3.0039062 L 1 14.003906 C 1 15.003906 2 15.003906 2 15.003906 L 14 15.003906 C 14 15.003906 15 15.003906 15 14.003906 L 15 3.0039062 C 15 2.0039062 14 2.0039063 14 2.0039062 L 10 2.0039062 C 10 1.8658367 9.99495 1.7278564 9.96875 1.5976562 C 9.78226 0.68628635 8.9666 0.00390625 8 0.00390625 z M 8 1.0039062 C 8.41421 1.0039062 8.75444 1.2699862 8.90625 1.6289062 C 8.95685 1.7485462 9 1.8658364 9 2.0039062 C 9 2.0303711 8.9866452 2.0523757 8.984375 2.078125 C 9.8882208 2.387123 10.600773 3.0998304 10.914062 4 L 13 4 L 13 4.0039062 L 13 13 L 3 13 L 3 4.0039062 L 3 4 L 5.0859375 4 C 5.3992274 3.0998304 6.1117791 2.387123 7.015625 2.078125 C 7.0133548 2.0523757 7 2.030371 7 2.0039062 C 7 1.4516265 7.44771 1.0039064 8 1.0039062 z "
       />
</svg>

<svg xmlns="http://www.w3.org/2000/svg" width="16" height="16"><path d="M8 3a2 2 0 1 0 0 4 2 2 0 1 0 0-4zm0 4a4 4 0 0 0-4 4 4 1 0 0 0 4 1 4 1 0 0 0 4-1 4 4 0 0 0-4-4z" fill="#fcc907"/><path d="M8 .004a2 2 0 0 0-2 2H2c-1 0-1 1-1 1v11c0 1 1 1 1 1h12s1 0 1-1v-11c0-1-1-1-1-1h-4c0-.138-.005-.276-.031-.406A2.01 2.01 0 0 0 8 .004zm0 1c.414 0 .754.266.906.625A.94.94 0 0 1 9 2.004c0 .026-.013.048-.016.074.904.309 1.616 1.022 1.93 1.922H13v.004V13H3V4.004 4h2.086c.313-.9 1.026-1.613 1.93-1.922C7.013 2.052 7 2.03 7 2.004a1 1 0 0 1 1-1z" fill="#6d6d70"/></svg>
